X:3
T:Anders Lagger Farfars (Boda or Hambo)
R:polska
Z:1999 Brian Wilson <baab@ma.ultranet.com> http://ma.ultranet.com/~baab
P:ABB
M:3/4
L:1/8
K:A
E
| "A"A2 AB cd | "A"e2 e/f/e/d/ c>e | "A"a2 ae Ac | "A"e2 e3d
| "A"cB AB cd | "A"e2 e/f/e/d/ c>e | "A"a2 ae Ac | "A"e2 e3 e
|: "D"f>e f2 d>e | "D"f2 d3 f | "A"a2 e>c A>c | "A"e2 e3 e
| "E"f>e dc B2- | "E"B>A Bc d>e | "D"f2 e/f/e/c/ d>B
|1 "E"G<B "A"A3 e :|2 "E"G<B "A"A3 E ||
